assets/1. 1-F/Briefs/Color/Briefs-color.svg

<svg width="100%" height="100%" viewBox="0 0 32 32" fill="none" xmlns="http://www.w3.org/2000/svg">
<g filter="url(#filter0_i_18_16832)">
<path d="M2.10938 13.5258H29.875V17.2947C29.875 18.902 29.2301 20.4421 28.0849 21.5698L21.6685 27.8884C20.359 29.178 18.5948 29.9008 16.7569 29.9008H15.2274C13.3895 29.9008 11.6254 29.178 10.3158 27.8884L3.89944 21.5698C2.75423 20.4421 2.10938 18.902 2.10938 17.2947V13.5258Z" fill="url(#paint0_linear_18_16832)"/>
<path d="M2.10938 13.5258H29.875V17.2947C29.875 18.902 29.2301 20.4421 28.0849 21.5698L21.6685 27.8884C20.359 29.178 18.5948 29.9008 16.7569 29.9008H15.2274C13.3895 29.9008 11.6254 29.178 10.3158 27.8884L3.89944 21.5698C2.75423 20.4421 2.10938 18.902 2.10938 17.2947V13.5258Z" fill="url(#paint1_radial_18_16832)"/>
<path d="M2.10938 13.5258H29.875V17.2947C29.875 18.902 29.2301 20.4421 28.0849 21.5698L21.6685 27.8884C20.359 29.178 18.5948 29.9008 16.7569 29.9008H15.2274C13.3895 29.9008 11.6254 29.178 10.3158 27.8884L3.89944 21.5698C2.75423 20.4421 2.10938 18.902 2.10938 17.2947V13.5258Z" fill="url(#paint2_radial_18_16832)"/>
<path d="M2.10938 13.5258H29.875V17.2947C29.875 18.902 29.2301 20.4421 28.0849 21.5698L21.6685 27.8884C20.359 29.178 18.5948 29.9008 16.7569 29.9008H15.2274C13.3895 29.9008 11.6254 29.178 10.3158 27.8884L3.89944 21.5698C2.75423 20.4421 2.10938 18.902 2.10938 17.2947V13.5258Z" fill="url(#paint3_linear_18_16832)"/>
<path d="M2.10938 13.5258H29.875V17.2947C29.875 18.902 29.2301 20.4421 28.0849 21.5698L21.6685 27.8884C20.359 29.178 18.5948 29.9008 16.7569 29.9008H15.2274C13.3895 29.9008 11.6254 29.178 10.3158 27.8884L3.89944 21.5698C2.75423 20.4421 2.10938 18.902 2.10938 17.2947V13.5258Z" fill="url(#paint4_linear_18_16832)"/>
<path d="M2.10938 13.5258H29.875V17.2947C29.875 18.902 29.2301 20.4421 28.0849 21.5698L21.6685 27.8884C20.359 29.178 18.5948 29.9008 16.7569 29.9008H15.2274C13.3895 29.9008 11.6254 29.178 10.3158 27.8884L3.89944 21.5698C2.75423 20.4421 2.10938 18.902 2.10938 17.2947V13.5258Z" fill="url(#paint5_linear_18_16832)"/>
</g>
<path d="M6.1084 23.7452L10.4836 13.5258H12.7103L7.67468 25.2876L6.1084 23.7452Z" fill="url(#paint6_linear_18_16832)"/>
<path d="M6.1084 23.7452L10.4836 13.5258H12.7103L7.67468 25.2876L6.1084 23.7452Z" fill="url(#paint7_linear_18_16832)"/>
<path d="M6.1084 23.7452L10.4836 13.5258H12.7103L7.67468 25.2876L6.1084 23.7452Z" fill="url(#paint8_linear_18_16832)"/>
<path d="M6.1084 23.7452L10.4836 13.5258H12.7103L7.67468 25.2876L6.1084 23.7452Z" fill="url(#paint9_linear_18_16832)"/>
<path d="M21.485 13.5258H19.2583L24.2985 25.2984L25.8648 23.756L21.485 13.5258Z" fill="url(#paint10_linear_18_16832)"/>
<path d="M21.485 13.5258H19.2583L24.2985 25.2984L25.8648 23.756L21.485 13.5258Z" fill="url(#paint11_linear_18_16832)"/>
<path d="M21.485 13.5258H19.2583L24.2985 25.2984L25.8648 23.756L21.485 13.5258Z" fill="url(#paint12_linear_18_16832)"/>
<path d="M21.485 13.5258H19.2583L24.2985 25.2984L25.8648 23.756L21.485 13.5258Z" fill="url(#paint13_linear_18_16832)"/>
<g filter="url(#filter1_i_18_16832)">
<path d="M2 12.1821C2 11.4917 2.55964 10.9321 3.25 10.9321H28.75C29.4404 10.9321 30 11.4917 30 12.1821V13.7321C30 13.8425 29.9105 13.9321 29.8 13.9321H2.2C2.08954 13.9321 2 13.8425 2 13.7321V12.1821Z" fill="#5DECFF"/>
<path d="M2 12.1821C2 11.4917 2.55964 10.9321 3.25 10.9321H28.75C29.4404 10.9321 30 11.4917 30 12.1821V13.7321C30 13.8425 29.9105 13.9321 29.8 13.9321H2.2C2.08954 13.9321 2 13.8425 2 13.7321V12.1821Z" fill="url(#paint14_linear_18_16832)"/>
<path d="M2 12.1821C2 11.4917 2.55964 10.9321 3.25 10.9321H28.75C29.4404 10.9321 30 11.4917 30 12.1821V13.7321C30 13.8425 29.9105 13.9321 29.8 13.9321H2.2C2.08954 13.9321 2 13.8425 2 13.7321V12.1821Z" fill="url(#paint15_linear_18_16832)"/>
</g>
<defs>
<filter id="filter0_i_18_16832" x="2.05937" y="13.3758" width="27.8156" height="16.525" filterUnits="userSpaceOnUse" color-interpolation-filters="sRGB">
<feFlood flood-opacity="0" result="BackgroundImageFix"/>
<feBlend mode="normal" in="SourceGraphic" in2="BackgroundImageFix" result="shape"/>
<feColorMatrix in="SourceAlpha" type="matrix" values="0 0 0 0 0 0 0 0 0 0 0 0 0 0 0 0 0 0 127 0" result="hardAlpha"/>
<feOffset dx="-0.05" dy="-0.15"/>
<feGaussianBlur stdDeviation="0.25"/>
<feComposite in2="hardAlpha" operator="arithmetic" k2="-1" k3="1"/>
<feColorMatrix type="matrix" values="0 0 0 0 0.368627 0 0 0 0 0.462745 0 0 0 0 1 0 0 0 1 0"/>
<feBlend mode="normal" in2="shape" result="effect1_innerShadow_18_16832"/>
</filter>
<filter id="filter1_i_18_16832" x="2" y="10.9321" width="28.1" height="3.05" filterUnits="userSpaceOnUse" color-interpolation-filters="sRGB">
<feFlood flood-opacity="0" result="BackgroundImageFix"/>
<feBlend mode="normal" in="SourceGraphic" in2="BackgroundImageFix" result="shape"/>
<feColorMatrix in="SourceAlpha" type="matrix" values="0 0 0 0 0 0 0 0 0 0 0 0 0 0 0 0 0 0 127 0" result="hardAlpha"/>
<feOffset dx="0.1" dy="0.05"/>
<feGaussianBlur stdDeviation="0.1"/>
<feComposite in2="hardAlpha" operator="arithmetic" k2="-1" k3="1"/>
<feColorMatrix type="matrix" values="0 0 0 0 0.27451 0 0 0 0 0.701961 0 0 0 0 0.87451 0 0 0 1 0"/>
<feBlend mode="normal" in2="shape" result="effect1_innerShadow_18_16832"/>
</filter>
<linearGradient id="paint0_linear_18_16832" x1="14.4844" y1="13.5258" x2="20.1719" y2="26.0571" gradientUnits="userSpaceOnUse">
<stop stop-color="#368CED"/>
<stop offset="1" stop-color="#4AB7FF"/>
</linearGradient>
<radialGradient id="paint1_radial_18_16832" cx="0" cy="0" r="1" gradientUnits="userSpaceOnUse" gradientTransform="translate(20.1094 29.9008) rotate(-123.843) scale(6.50908 10.6984)">
<stop stop-color="#46C7FF"/>
<stop offset="1" stop-color="#46C7FF" stop-opacity="0"/>
</radialGradient>
<radialGradient id="paint2_radial_18_16832" cx="0" cy="0" r="1" gradientUnits="userSpaceOnUse" gradientTransform="translate(28.9219 14.1196) rotate(90) scale(9.9375 5.53769)">
<stop stop-color="#6AB0FF"/>
<stop offset="1" stop-color="#6AB0FF" stop-opacity="0"/>
</radialGradient>
<linearGradient id="paint3_linear_18_16832" x1="15.9922" y1="13.6664" x2="15.9922" y2="14.1821" gradientUnits="userSpaceOnUse">
<stop stop-color="#2271DD"/>
<stop offset="1" stop-color="#2271DD" stop-opacity="0"/>
</linearGradient>
<linearGradient id="paint4_linear_18_16832" x1="8.92187" y1="27.9946" x2="11.8594" y2="25.2446" gradientUnits="userSpaceOnUse">
<stop offset="0.106152" stop-color="#4193FF"/>
<stop offset="1" stop-color="#4193FF" stop-opacity="0"/>
</linearGradient>
<linearGradient id="paint5_linear_18_16832" x1="1.58779" y1="16.6308" x2="5.8598" y2="16.6308" gradientUnits="userSpaceOnUse">
<stop stop-color="#436FA9"/>
<stop offset="1" stop-color="#2A80E2" stop-opacity="0"/>
</linearGradient>
<linearGradient id="paint6_linear_18_16832" x1="11.3906" y1="13.9321" x2="6.60935" y2="25.2876" gradientUnits="userSpaceOnUse">
<stop stop-color="#56F1FF"/>
<stop offset="1" stop-color="#56D0FF"/>
</linearGradient>
<linearGradient id="paint7_linear_18_16832" x1="6.95309" y1="24.8071" x2="7.90622" y2="23.4008" gradientUnits="userSpaceOnUse">
<stop stop-color="#5597FF"/>
<stop offset="1" stop-color="#55C5FF" stop-opacity="0"/>
</linearGradient>
<linearGradient id="paint8_linear_18_16832" x1="11.4922" y1="16.5414" x2="11.2343" y2="16.4399" gradientUnits="userSpaceOnUse">
<stop offset="0.175182" stop-color="#6BF7FF"/>
<stop offset="1" stop-color="#6BF7FF" stop-opacity="0"/>
</linearGradient>
<linearGradient id="paint9_linear_18_16832" x1="7.67697" y1="13.8693" x2="7.67697" y2="14.1971" gradientUnits="userSpaceOnUse">
<stop stop-color="#48CEFF"/>
<stop offset="1" stop-color="#48CEFF" stop-opacity="0"/>
</linearGradient>
<linearGradient id="paint10_linear_18_16832" x1="20.6092" y1="14.3383" x2="25.1405" y2="24.1196" gradientUnits="userSpaceOnUse">
<stop stop-color="#55EDFF"/>
<stop offset="1" stop-color="#5EFAFF"/>
</linearGradient>
<linearGradient id="paint11_linear_18_16832" x1="24.1085" y1="19.5112" x2="23.7968" y2="19.6342" gradientUnits="userSpaceOnUse">
<stop offset="0.131367" stop-color="#64FBFF"/>
<stop offset="1" stop-color="#64FBFF" stop-opacity="0"/>
</linearGradient>
<linearGradient id="paint12_linear_18_16832" x1="25.203" y1="24.3696" x2="24.9764" y2="24.1352" gradientUnits="userSpaceOnUse">
<stop stop-color="#62E0FF"/>
<stop offset="1" stop-color="#62E0FF" stop-opacity="0"/>
</linearGradient>
<linearGradient id="paint13_linear_18_16832" x1="20.828" y1="13.8696" x2="20.828" y2="14.1977" gradientUnits="userSpaceOnUse">
<stop stop-color="#48CEFF"/>
<stop offset="1" stop-color="#48CEFF" stop-opacity="0"/>
</linearGradient>
<linearGradient id="paint14_linear_18_16832" x1="2" y1="13.9321" x2="6.54687" y2="13.9321" gradientUnits="userSpaceOnUse">
<stop stop-color="#4ACBFF"/>
<stop offset="1" stop-color="#4ACBFF" stop-opacity="0"/>
</linearGradient>
<linearGradient id="paint15_linear_18_16832" x1="30" y1="13.9321" x2="24.2969" y2="13.9321" gradientUnits="userSpaceOnUse">
<stop offset="0.463014" stop-color="#7FFFFF"/>
<stop offset="1" stop-color="#7FFFFF" stop-opacity="0"/>
</linearGradient>
</defs>
</svg>

<svg width="100%" height="100%" viewBox="0 0 32 32" xmlns="http://www.w3.org/2000/svg"><g filter="url(#a)"><path fill="url(#b)" d="M2.11 13.526h27.765v3.769a6 6 0 0 1-1.79 4.275l-6.416 6.318a7 7 0 0 1-4.912 2.013h-1.53a7 7 0 0 1-4.911-2.013L3.899 21.57a6 6 0 0 1-1.79-4.275z"/><path fill="url(#c)" d="M2.11 13.526h27.765v3.769a6 6 0 0 1-1.79 4.275l-6.416 6.318a7 7 0 0 1-4.912 2.013h-1.53a7 7 0 0 1-4.911-2.013L3.899 21.57a6 6 0 0 1-1.79-4.275z"/><path fill="url(#d)" d="M2.11 13.526h27.765v3.769a6 6 0 0 1-1.79 4.275l-6.416 6.318a7 7 0 0 1-4.912 2.013h-1.53a7 7 0 0 1-4.911-2.013L3.899 21.57a6 6 0 0 1-1.79-4.275z"/><path fill="url(#e)" d="M2.11 13.526h27.765v3.769a6 6 0 0 1-1.79 4.275l-6.416 6.318a7 7 0 0 1-4.912 2.013h-1.53a7 7 0 0 1-4.911-2.013L3.899 21.57a6 6 0 0 1-1.79-4.275z"/><path fill="url(#f)" d="M2.11 13.526h27.765v3.769a6 6 0 0 1-1.79 4.275l-6.416 6.318a7 7 0 0 1-4.912 2.013h-1.53a7 7 0 0 1-4.911-2.013L3.899 21.57a6 6 0 0 1-1.79-4.275z"/><path fill="url(#g)" d="M2.11 13.526h27.765v3.769a6 6 0 0 1-1.79 4.275l-6.416 6.318a7 7 0 0 1-4.912 2.013h-1.53a7 7 0 0 1-4.911-2.013L3.899 21.57a6 6 0 0 1-1.79-4.275z"/></g><path fill="url(#h)" d="m6.108 23.745 4.376-10.22h2.226L7.675 25.289z"/><path fill="url(#i)" d="m6.108 23.745 4.376-10.22h2.226L7.675 25.289z"/><path fill="url(#j)" d="m6.108 23.745 4.376-10.22h2.226L7.675 25.289z"/><path fill="url(#k)" d="m6.108 23.745 4.376-10.22h2.226L7.675 25.289z"/><path fill="url(#l)" d="M21.485 13.526h-2.227l5.04 11.772 1.567-1.542z"/><path fill="url(#m)" d="M21.485 13.526h-2.227l5.04 11.772 1.567-1.542z"/><path fill="url(#n)" d="M21.485 13.526h-2.227l5.04 11.772 1.567-1.542z"/><path fill="url(#o)" d="M21.485 13.526h-2.227l5.04 11.772 1.567-1.542z"/><g filter="url(#p)"><path fill="#5DECFF" d="M2 12.182c0-.69.56-1.25 1.25-1.25h25.5c.69 0 1.25.56 1.25 1.25v1.55a.2.2 0 0 1-.2.2H2.2a.2.2 0 0 1-.2-.2z"/><path fill="url(#q)" d="M2 12.182c0-.69.56-1.25 1.25-1.25h25.5c.69 0 1.25.56 1.25 1.25v1.55a.2.2 0 0 1-.2.2H2.2a.2.2 0 0 1-.2-.2z"/><path fill="url(#r)" d="M2 12.182c0-.69.56-1.25 1.25-1.25h25.5c.69 0 1.25.56 1.25 1.25v1.55a.2.2 0 0 1-.2.2H2.2a.2.2 0 0 1-.2-.2z"/></g><defs><linearGradient id="b" x1="14.484" x2="20.172" y1="13.526" y2="26.057" gradientUnits="userSpaceOnUse"><stop stop-color="#368CED"/><stop offset="1" stop-color="#4AB7FF"/></linearGradient><linearGradient id="e" x1="15.992" x2="15.992" y1="13.666" y2="14.182" gradientUnits="userSpaceOnUse"><stop stop-color="#2271DD"/><stop offset="1" stop-color="#2271DD" stop-opacity="0"/></linearGradient><linearGradient id="f" x1="8.922" x2="11.859" y1="27.995" y2="25.245" gradientUnits="userSpaceOnUse"><stop offset=".106" stop-color="#4193FF"/><stop offset="1" stop-color="#4193FF" stop-opacity="0"/></linearGradient><linearGradient id="g" x1="1.588" x2="5.86" y1="16.631" y2="16.631" gradientUnits="userSpaceOnUse"><stop stop-color="#436FA9"/><stop offset="1" stop-color="#2A80E2" stop-opacity="0"/></linearGradient><linearGradient id="h" x1="11.391" x2="6.609" y1="13.932" y2="25.288" gradientUnits="userSpaceOnUse"><stop stop-color="#56F1FF"/><stop offset="1" stop-color="#56D0FF"/></linearGradient><linearGradient id="i" x1="6.953" x2="7.906" y1="24.807" y2="23.401" gradientUnits="userSpaceOnUse"><stop stop-color="#5597FF"/><stop offset="1" stop-color="#55C5FF" stop-opacity="0"/></linearGradient><linearGradient id="j" x1="11.492" x2="11.234" y1="16.541" y2="16.44" gradientUnits="userSpaceOnUse"><stop offset=".175" stop-color="#6BF7FF"/><stop offset="1" stop-color="#6BF7FF" stop-opacity="0"/></linearGradient><linearGradient id="k" x1="7.677" x2="7.677" y1="13.869" y2="14.197" gradientUnits="userSpaceOnUse"><stop stop-color="#48CEFF"/><stop offset="1" stop-color="#48CEFF" stop-opacity="0"/></linearGradient><linearGradient id="l" x1="20.609" x2="25.14" y1="14.338" y2="24.12" gradientUnits="userSpaceOnUse"><stop stop-color="#55EDFF"/><stop offset="1" stop-color="#5EFAFF"/></linearGradient><linearGradient id="m" x1="24.108" x2="23.797" y1="19.511" y2="19.634" gradientUnits="userSpaceOnUse"><stop offset=".131" stop-color="#64FBFF"/><stop offset="1" stop-color="#64FBFF" stop-opacity="0"/></linearGradient><linearGradient id="n" x1="25.203" x2="24.976" y1="24.37" y2="24.135" gradientUnits="userSpaceOnUse"><stop stop-color="#62E0FF"/><stop offset="1" stop-color="#62E0FF" stop-opacity="0"/></linearGradient><linearGradient id="o" x1="20.828" x2="20.828" y1="13.87" y2="14.198" gradientUnits="userSpaceOnUse"><stop stop-color="#48CEFF"/><stop offset="1" stop-color="#48CEFF" stop-opacity="0"/></linearGradient><linearGradient id="q" x1="2" x2="6.547" y1="13.932" y2="13.932" gradientUnits="userSpaceOnUse"><stop stop-color="#4ACBFF"/><stop offset="1" stop-color="#4ACBFF" stop-opacity="0"/></linearGradient><linearGradient id="r" x1="30" x2="24.297" y1="13.932" y2="13.932" gradientUnits="userSpaceOnUse"><stop offset=".463" stop-color="#7FFFFF"/><stop offset="1" stop-color="#7FFFFF" stop-opacity="0"/></linearGradient><radialGradient id="c" cx="0" cy="0" r="1" gradientTransform="rotate(-123.843 18.03 9.587)scale(6.50908 10.6984)" gradientUnits="userSpaceOnUse"><stop stop-color="#46C7FF"/><stop offset="1" stop-color="#46C7FF" stop-opacity="0"/></radialGradient><radialGradient id="d" cx="0" cy="0" r="1" gradientTransform="matrix(0 9.9375 -5.53769 0 28.922 14.12)" gradientUnits="userSpaceOnUse"><stop stop-color="#6AB0FF"/><stop offset="1" stop-color="#6AB0FF" stop-opacity="0"/></radialGradient><filter id="a" width="27.816" height="16.525" x="2.059" y="13.376" color-interpolation-filters="sRGB" filterUnits="userSpaceOnUse"><feFlood flood-opacity="0" result="BackgroundImageFix"/><feBlend in="SourceGraphic" in2="BackgroundImageFix" result="shape"/><feColorMatrix in="SourceAlpha" result="hardAlpha" values="0 0 0 0 0 0 0 0 0 0 0 0 0 0 0 0 0 0 127 0"/><feOffset dx="-.05" dy="-.15"/><feGaussianBlur stdDeviation=".25"/><feComposite in2="hardAlpha" k2="-1" k3="1" operator="arithmetic"/><feColorMatrix values="0 0 0 0 0.368627 0 0 0 0 0.462745 0 0 0 0 1 0 0 0 1 0"/><feBlend in2="shape" result="effect1_innerShadow_18_16832"/></filter><filter id="p" width="28.1" height="3.05" x="2" y="10.932" color-interpolation-filters="sRGB" filterUnits="userSpaceOnUse"><feFlood flood-opacity="0" result="BackgroundImageFix"/><feBlend in="SourceGraphic" in2="BackgroundImageFix" result="shape"/><feColorMatrix in="SourceAlpha" result="hardAlpha" values="0 0 0 0 0 0 0 0 0 0 0 0 0 0 0 0 0 0 127 0"/><feOffset dx=".1" dy=".05"/><feGaussianBlur stdDeviation=".1"/><feComposite in2="hardAlpha" k2="-1" k3="1" operator="arithmetic"/><feColorMatrix values="0 0 0 0 0.27451 0 0 0 0 0.701961 0 0 0 0 0.87451 0 0 0 1 0"/><feBlend in2="shape" result="effect1_innerShadow_18_16832"/></filter></defs></svg>
